resources/haticons/SVG/spinner4.svg

<!-- Generated by IcoMoon.io -->
<svg version="1.1" xmlns="http://www.w3.org/2000/svg" width="24" height="24" viewBox="0 0 24 24">
<title>spinner4</title>
<path d="M4.5 12c0-0.285 0.017-0.567 0.048-0.844l-4.335-1.409c-0.139 0.73-0.212 1.483-0.212 2.253 0 3.451 1.457 6.561 3.789 8.75l2.679-3.687c-1.222-1.334-1.967-3.112-1.967-5.063zM19.5 12c0 1.952-0.746 3.729-1.967 5.063l2.679 3.687c2.332-2.189 3.789-5.299 3.789-8.75 0-0.77-0.073-1.523-0.212-2.253l-4.335 1.409c0.031 0.277 0.048 0.559 0.048 0.844zM13.5 4.65c2.155 0.437 3.974 1.799 5.026 3.652l4.335-1.409c-1.716-3.643-5.209-6.283-9.362-6.801v4.557zM5.474 8.302c1.052-1.854 2.871-3.215 5.026-3.652v-4.557c-4.153 0.518-7.646 3.158-9.362 6.8l4.335 1.409zM15.107 18.828c-0.947 0.431-1.999 0.672-3.107 0.672s-2.16-0.241-3.107-0.672l-2.679 3.687c1.716 0.946 3.688 1.485 5.785 1.485s4.070-0.539 5.785-1.485l-2.679-3.687z"></path>
</svg>

<svg xmlns="http://www.w3.org/2000/svg" width="24" height="24"><path d="M4.5 12c0-.285.017-.567.048-.844L.213 9.747C.074 10.477.001 11.23.001 12c0 3.451 1.457 6.561 3.789 8.75l2.679-3.687A7.471 7.471 0 0 1 4.502 12zm15 0a7.474 7.474 0 0 1-1.967 5.063l2.679 3.687A11.965 11.965 0 0 0 24.001 12c0-.77-.073-1.523-.212-2.253l-4.335 1.409c.031.277.048.559.048.844zm-6-7.35a7.508 7.508 0 0 1 5.026 3.652l4.335-1.409C21.145 3.25 17.652.61 13.499.092v4.557zM5.474 8.302A7.505 7.505 0 0 1 10.5 4.65V.093c-4.153.518-7.646 3.158-9.362 6.8l4.335 1.409zm9.633 10.526c-.947.431-1.999.672-3.107.672s-2.16-.241-3.107-.672l-2.679 3.687C7.93 23.461 9.902 24 11.999 24s4.07-.539 5.785-1.485l-2.679-3.687z"/></svg>
